svgs/regular/bomb.svg

<svg xmlns="http://www.w3.org/2000/svg" viewBox="0 0 512 512"><!--! Font Awesome Pro 6.2.0 by @fontawesome - https://fontawesome.com License - https://fontawesome.com/license (Commercial License) Copyright 2022 Fonticons, Inc. --><path d="M459.1 52.39L504.8 69.22C509 70.78 512 75.12 512 79.67C512 84.15 508.1 88.38 504.8 89.83L459.1 106.7L442.6 152.5C441.1 156.9 436.7 160 432.1 160C427.5 160 423.2 156.9 421.7 152.5L404.9 106.7L359.2 89.83C355 88.38 352 84.15 352 79.67C351.1 75.12 354.1 70.78 359.2 69.22L405.2 52.39L421.7 6.548C423.6 2.623 427.8 0 432.1 0C436.5 0 440.7 2.623 442.6 6.548L459.1 52.39zM200 224C160.2 224 128 256.2 128 296C128 309.3 117.3 320 104 320C90.75 320 80 309.3 80 296C80 229.7 133.7 176 200 176C213.3 176 224 186.7 224 200C224 213.3 213.3 224 200 224zM278.5 108.3L281.4 105.4C293.9 92.88 314.1 92.88 326.6 105.4L406.6 185.4C419.1 197.9 419.1 218.1 406.6 230.6L403.8 233.5C411.7 255.5 416 279.3 416 304C416 418.9 322.9 512 208 512C93.12 512 0 418.9 0 304C0 189.1 93.12 96 208 96C232.7 96 256.5 100.3 278.5 108.3V108.3zM302.9 149.6C290.8 156.7 275.9 158.3 262.2 153.4C245.4 147.3 227.1 144 208 144C119.6 144 48 215.6 48 304C48 392.4 119.6 464 208 464C296.4 464 368 392.4 368 304C368 284.9 364.7 266.6 358.6 249.8C353.7 236.1 355.3 221.2 362.4 209.1L302.9 149.6z"/></svg>

<svg xmlns="http://www.w3.org/2000/svg" viewBox="0 0 512 512"><!--! Font Awesome Pro 6.3.0 by @fontawesome - https://fontawesome.com License - https://fontawesome.com/license (Commercial License) Copyright 2023 Fonticons, Inc. --><path d="M459.1 52.4l45.7 16.8c4.3 1.6 7.3 5.9 7.2 10.4c0 4.5-3 8.7-7.2 10.2l-45.7 16.8-16.5 45.8c-1.5 4.4-5.8 7.5-10.4 7.5s-8.9-3.1-10.4-7.5l-16.8-45.8L359.2 89.8c-4.2-1.5-7.2-5.7-7.2-10.2c0-4.6 3-8.9 7.2-10.4l46-16.8L421.7 6.5c1.9-3.9 6.1-6.5 10.4-6.5s8.5 2.6 10.4 6.5l16.5 45.8zM302.9 149.6c-12.1 7.2-27.1 8.8-40.7 3.8c-16.9-6.1-35.1-9.4-54.2-9.4c-88.4 0-160 71.6-160 160s71.6 160 160 160s160-71.6 160-160c0-19.1-3.3-37.4-9.4-54.2c-4.9-13.7-3.3-28.6 3.8-40.7l-59.5-59.5zm-24.4-41.3l2.9-2.9c12.5-12.5 32.8-12.5 45.3 0l80 80c12.5 12.5 12.5 32.8 0 45.3l-2.9 2.9c7.9 22 12.2 45.7 12.2 70.5c0 114.9-93.1 208-208 208S0 418.9 0 304S93.1 96 208 96c24.7 0 48.5 4.3 70.5 12.3zM200 224c-39.8 0-72 32.2-72 72c0 13.3-10.7 24-24 24s-24-10.7-24-24c0-66.3 53.7-120 120-120c13.3 0 24 10.7 24 24s-10.7 24-24 24z"/></svg>
